assets/img/icons/content_card.svg

<svg fill="none" height="25" viewBox="0 0 24 25" width="24" xmlns="http://www.w3.org/2000/svg" xmlns:xlink="http://www.w3.org/1999/xlink"><linearGradient id="a" gradientUnits="userSpaceOnUse" x1="9.9002" x2="9.90021" y1="2.53952" y2="11.2154"><stop offset="0" stop-color="#4c98ed"/><stop offset="1" stop-color="#e5a7de"/></linearGradient><clipPath id="b"><path d="m0 .280762h24v24h-24z"/></clipPath><g clip-path="url(#b)"><path clip-rule="evenodd" d="m7.95361 19.1789c0-.4418.35818-.8.8-.8h10.68309c.4418 0 .8.3582.8.8s-.3582.8-.8.8h-10.68309c-.44182 0-.8-.3582-.8-.8z" fill="#2e3c47" fill-rule="evenodd"/><path clip-rule="evenodd" d="m.999951.935059c-.441828 0-.8.358171-.8.800001v14.08764c0 .4418.358172.8.8.8h3.390429v6.2037c0 .4418.35817.8.8.8h17.80962c.4419 0 .8-.3582.8-.8v-14.08768c0-.44183-.3581-.8-.8-.8h-3.3904v-6.20366c0-.44183-.3582-.800001-.8-.800001zm18.609649 8.603661v6.28398c0 .4418-.3582.8-.8.8h-12.81922v5.4037h16.20962v-12.48768zm-17.80965 5.48398v-12.48764h16.20965v12.48764z" fill="#2e3c47" fill-rule="evenodd"/><path d="m1.80273 2.53955h16.19497v8.67585h-16.19497z" fill="url(#a)"/><g fill="#2e3c47"><path d="m7.30331 4.56006 4.05429 5.14367h-8.10858z"/><path d="m16.0609 7.09026c0 1.39739-1.1328 2.53019-2.5302 2.53019s-2.5302-1.1328-2.5302-2.53019 1.1328-2.5302 2.5302-2.5302 2.5302 1.13281 2.5302 2.5302z"/></g></g></svg>

<svg width="24" height="25" viewBox="0 0 24 25" fill="none" xmlns="http://www.w3.org/2000/svg">
<g clip-path="url(#clip0_5018_30045)">
<path fill-rule="evenodd" clip-rule="evenodd" d="M7.95361 19.1789C7.95361 18.7371 8.31179 18.3789 8.75361 18.3789H19.4367C19.8785 18.3789 20.2367 18.7371 20.2367 19.1789C20.2367 19.6207 19.8785 19.9789 19.4367 19.9789H8.75361C8.31179 19.9789 7.95361 19.6207 7.95361 19.1789Z" fill="#2E3C47"/>
<path fill-rule="evenodd" clip-rule="evenodd" d="M0.999951 0.935059C0.558123 0.935059 0.199951 1.29323 0.199951 1.73506V15.8227C0.199951 16.2645 0.558123 16.6227 0.999951 16.6227H4.39038V22.8264C4.39038 23.2682 4.74855 23.6264 5.19038 23.6264H23C23.4419 23.6264 23.8 23.2682 23.8 22.8264V8.73872C23.8 8.29689 23.4419 7.93872 23 7.93872H19.6096V1.73506C19.6096 1.29323 19.2514 0.935059 18.8096 0.935059H0.999951ZM19.6096 9.53872V15.8227C19.6096 16.2645 19.2514 16.6227 18.8096 16.6227H5.99038V22.0264H22.2V9.53872H19.6096ZM1.79995 15.0227V2.53506H18.0096V15.0227H1.79995Z" fill="#2E3C47"/>
<path d="M1.80273 2.53955H17.9977V11.2154H1.80273V2.53955Z" fill="url(#paint0_linear_5018_30045)"/>
<path d="M7.30331 4.56006L11.3576 9.70373H3.24902L7.30331 4.56006Z" fill="#2E3C47"/>
<path d="M16.0609 7.09026C16.0609 8.48765 14.9281 9.62045 13.5307 9.62045C12.1333 9.62045 11.0005 8.48765 11.0005 7.09026C11.0005 5.69287 12.1333 4.56006 13.5307 4.56006C14.9281 4.56006 16.0609 5.69287 16.0609 7.09026Z" fill="#2E3C47"/>
</g>
<defs>
<linearGradient id="paint0_linear_5018_30045" x1="9.9002" y1="2.53952" x2="9.90021" y2="11.2154" gradientUnits="userSpaceOnUse">
<stop stop-color="#4C98ED"/>
<stop offset="1" stop-color="#E5A7DE"/>
</linearGradient>
<clipPath id="clip0_5018_30045">
<rect width="24" height="24" fill="white" transform="translate(0 0.280762)"/>
</clipPath>
</defs>
</svg>
